X: 7
T: The Trip To Ireland - Jutland
C:
M: 4/4
L: 1/8
R: reel
K: Emin
P:A
|:EFGA B4|eede zdef|gfga fedB|edBA BEFD|
E/D/E/F/ GA Bgfd|eede zdef|gfga fedB|edBA BEFD:|
|:EEBE zGBG|AAGA zEGA|B2 e2 e2 e2|d2 Bd e2 ed|
edef edBG|AAGA zEGA|B2 AG AGED|EEDE E2z2:|
P:B
BA|B2 E2 EBBA|GFEG G3A|GFEF F3B|B4 B2 BA|
B2 E2 EBBA|GFEG G3A|GFEF F4|F4 F2||
BA|B2 E2 EBBA|GFEG G3A|GFEF F3B|B4 B2 BA|
B2 E2 EBBA|GFEG G3A|GFEF F2 F2|E2 D2 E4|E4 E2||
AB|c3B B2 AG|B3G E2 EA/B/|c3B B2 AG|
B2 B2 A2 G2|F4 F4|F4 F2 BA||
B2 E2 EBBA|GFEG G3A|GFEF F2 F2|E2 D2 E4|E4 E2||
ab|c'3b b2 ag|b3g e2 ea/b/| c'3b b2 ag|b2 b2 a2 g2|
f4 f4|f4 f2 BA|B2 E2 EBBA|GFEG G3A|
GFEF F2 F2|E2 D2 E4|E4 E4||

